symbols/web/select_all/materialsymbolsoutlined/select_all_wght500_40px.svg

<svg xmlns="http://www.w3.org/2000/svg" height="40" width="40"><path d="M7.625 35.542q-1.292 0-2.229-.938-.938-.937-.938-2.229h3.167Zm-3.167-6.709v-3.541h3.167v3.541Zm0-7.083v-3.542h3.167v3.542Zm0-7.042v-3.541h3.167v3.541Zm0-7.083q0-1.292.938-2.229.937-.938 2.229-.938v3.167Zm6.709 21.208V11.167h17.666v17.666Zm0 6.709v-3.167h3.541v3.167Zm0-27.917V4.458h3.541v3.167Zm3.166 18.042h11.334V14.333H14.333Zm3.917 9.875v-3.167h3.542v3.167Zm0-27.917V4.458h3.542v3.167Zm7.042 27.917v-3.167h3.541v3.167Zm0-27.917V4.458h3.541v3.167Zm7.083 27.917v-3.167h3.167q0 1.292-.938 2.229-.937.938-2.229.938Zm0-6.709v-3.541h3.167v3.541Zm0-7.083v-3.542h3.167v3.542Zm0-7.042v-3.541h3.167v3.541Zm0-7.083V4.458q1.292 0 2.229.938.938.937.938 2.229Z"/></svg>

<svg xmlns="http://www.w3.org/2000/svg" height="40" width="40"><path d="M4.458 7.625Q4.458 6.333 5.396 5.396Q6.333 4.458 7.625 4.458V7.625ZM4.458 21.75V18.208H7.625V21.75ZM11.167 35.542V32.375H14.708V35.542ZM4.458 14.708V11.167H7.625V14.708ZM18.25 7.625V4.458H21.792V7.625ZM32.375 7.625V4.458Q33.667 4.458 34.604 5.396Q35.542 6.333 35.542 7.625ZM7.625 35.542Q6.333 35.542 5.396 34.604Q4.458 33.667 4.458 32.375H7.625ZM4.458 28.833V25.292H7.625V28.833ZM11.167 7.625V4.458H14.708V7.625ZM18.25 35.542V32.375H21.792V35.542ZM32.375 21.75V18.208H35.542V21.75ZM32.375 35.542V32.375H35.542Q35.542 33.667 34.604 34.604Q33.667 35.542 32.375 35.542ZM32.375 14.708V11.167H35.542V14.708ZM32.375 28.833V25.292H35.542V28.833ZM25.292 35.542V32.375H28.833V35.542ZM25.292 7.625V4.458H28.833V7.625ZM11.167 28.833V11.167H28.833V28.833ZM14.333 25.667H25.667V14.333H14.333Z"/></svg>
